svg/black/pax.svg

<?xml version="1.0" encoding="UTF-8"?>
<svg width="32px" height="32px" viewBox="0 0 32 32" version="1.1" xmlns="http://www.w3.org/2000/svg" xmlns:xlink="http://www.w3.org/1999/xlink">
    <!-- Generator: Sketch 52.5 (67469) - http://www.bohemiancoding.com/sketch -->
    <title>svg/black/pax</title>
    <desc>Created with Sketch.</desc>
    <g id="black/pax" stroke="none" stroke-width="1" fill="none" fill-rule="evenodd">
        <path d="M16,32 C7.163444,32 0,24.836556 0,16 C0,7.163444 7.163444,0 16,0 C24.836556,0 32,7.163444 32,16 C32,24.836556 24.836556,32 16,32 Z M26.88,13.35 L27.38,14.1 C28.38,11.58 28.15,9.61 27.25,8.75 C25.63,7.19 23.25,8.06 20.67,6.98 C18.52,5.4 17.22,4.98 15.43,4.98 C14.2073567,5.19032168 13.0755394,5.76145412 12.18,6.62 C10.718714,6.53453762 9.29336839,7.09371168 8.28,8.15 C7.22,9.4 6.98,12.83 6.82,13.7 C6.66,14.57 4.82,18.08 5.01,20 C5.2,21.92 6.61,24 10.6,24.49 C12.0983483,26.2302873 14.304865,27.1974771 16.6,27.12 C18.69,26.9 21.6,23.7 23.29,22.43 C24.98,21.16 31,20.06 27.41,14.15 C27.2561229,13.891706 27.0892418,13.6413843 26.91,13.4 L26.88,13.35 Z M17.75,22.15 C14.6143911,22.7582211 11.4884834,21.0547063 10.3,18.09 C10.08,17.23 9.65,12.85 13.3,10.68 C16.02,9.14 19.85,8.93 21.46,12.52 C23.07,16.11 22.48,21.14 17.75,22.15 Z" id="Combined-Shape" fill="#000000" fill-rule="nonzero"></path>
    </g>
</svg>

<svg width="32" height="32" viewBox="0 0 32 32" xmlns="http://www.w3.org/2000/svg"><path d="M16 32C7.163 32 0 24.837 0 16S7.163 0 16 0s16 7.163 16 16-7.163 16-16 16zm10.88-18.65l.5.75c1-2.52.77-4.49-.13-5.35-1.62-1.56-4-.69-6.58-1.77-2.15-1.58-3.45-2-5.24-2a6.22 6.22 0 0 0-3.25 1.64 5 5 0 0 0-3.9 1.53c-1.06 1.25-1.3 4.68-1.46 5.55-.16.87-2 4.38-1.81 6.3.19 1.92 1.6 4 5.59 4.49a7.58 7.58 0 0 0 6 2.63c2.09-.22 5-3.42 6.69-4.69 1.69-1.27 7.71-2.37 4.12-8.28a8.89 8.89 0 0 0-.5-.75l-.03-.05zm-9.13 8.8a6.66 6.66 0 0 1-7.45-4.06c-.22-.86-.65-5.24 3-7.41 2.72-1.54 6.55-1.75 8.16 1.84 1.61 3.59 1.02 8.62-3.71 9.63z"/></svg>
